X: 1
T: Bristol
M: 2/4
L: 1/8
R: polka
F: http://www.thesession.org/tunes/display/10181
K: Dmaj
A | dd ee | d/c/B/A/ AB/c/ | dd ee | f2 eA |
dd ee | d/c/B/A/ AB/c/ | dd e/d/e/f/ | d2 z :|
|: f/g/ | aa ff | gg e2 | fd Bd | d/c/e/c/ Af/g/ |
aa ff | gg e2 | e/f/B/e/ dc | d2 z :|

%%sep 2 1 500

